X:56
T:Rveillez
T:[Rveillez (1)]
M:C
L:1/8
N:Mouvt de marche
N:La Bourre 4th edition 1929, page 61
Z:Steve Mansfield www.lesession.co.uk May 2012
K:Am
(A AB{AB}A G | c4 d2 ed | ({cd}c)B !fermata! A4) z G |
A B A G c4 | d2 e d (cB) A2 - |
A2 - A G A B A G | c4 d2 e d | (cB) !fermata! A6 |]

